!!!COM: Music21
!!!OTL: score.mxl
!!!OMV: score.mxl
**kern
*I"Score
*clefG2
*k[f#c#]
*M4/4
*met(c)
=1
!LO:TX:a:B:t=Andante
8BBL [8f#
8C#J 8f#]
8DL [8b
8EJ 8b_
8F#L 8b_ [8cc#
8G#XJ 8b] 8cc#]
8AL [8a [8ff#
8BJ 8a] 8ff#_
=2
8c#L [8g#X 8ff#_
8BJ 8g#] 8ff#]
8A#XL [8cc# [8ee
8F#J 8cc#_ 8ee]
8BL 8cc#_ [8dd
8AnJ 8cc#] 8dd_
8GnL 8b 8dd_
8F#J 8a 8dd_
=3
8EL [8gn 8dd_
8C#J 8g_ 8dd]
8DL 8g_ 8cc#
8EJ 8g_ 8b
8F#L 8g] [8a#X
8FF#J 8f# 8a#]
8GG#XL [8e 8b
8AA#XJ 8e_ 8cc#
=4
8BBL 8e_ [8f#
8C#J 8e] 8f#]
8DL [8d [8b
8EJ 8d] 8b_
8F#L [8c# 8b_
8G#XJ 8c#] 8b]
8AnL [8f# [8a
8F#J 8f#_ 8a]
!!linebreak:original
=5
8BL 8f#_ [8g
8BBJ 8f#] 8g_
8C#L [8e 8g_
8AAJ 8e_ 8g]
8DL 8e_ [8f#
8C#J 8e] 8f#_
8BBL [8d 8f#_
8AAJ 8d_ 8f#]
=6
8GGL 8d_ [8b
8F#J 8d] 8b]
8EL [8g [8ee
8DJ 8g_ 8ee]
8C#L 8g_ [8a
8AJ 8g] 8a]
8BL [8f# [8dd
8F#J 8f#] 8dd_
=7
8GL [8e 8dd_
8EJ 8e_ 8dd]
8AL 8e_ [8cc#
8AAJ 8e] 8cc#]
[16DLL [16f# 16dd
16DJ] 16f#_ 16cc#
[16EL 16f#_ 16b
16EJJ] 16f#] 16a
8F#L [8dd
8GJ 8dd_
=8
8AAL [8e 8dd_
8BBJ 8e] 8dd]
8C#L [8a [8cc#
8DJ 8a_ 8cc#]
8EL 8a_ [8b
8F#J 8a] 8b]
8GL [8g [8ee
8AJ 8g] 8ee_
!!linebreak:original
=9
8BBL [8f# 8ee_
8C#J 8f#] 8ee]
8DL [8b [8dd
8EJ 8b_ 8dd]
8F#L 8b_ [8cc#
8G#XJ 8b] 8cc#]
8AL [8a [8ff#
8BJ 8a] 8ff#_
=10
8c#L [8g#X 8ff#_
8BJ 8g#] 8ff#]
8c#L [8cc# [8ee#X
8AJ 8cc#_ 8ee#]
8dL 8cc#_ [8ff#
8c#J 8cc#] 8ff#]
8dL [8b [8gg#X
8BJ 8b_ 8gg#]
=11
8E#XL 8b_ [8cc#
8c#J 8b] 8cc#]
8dL [8a [8ff#
8AJ 8a] 8ff#_
8BL [8g#X 8ff#_
8G#XJ 8g#_ 8ff#]
8c#L 8g#_ [8ee#X
8C#J 8g#] 8ee#]
=12
8F#L [8a [8ff#
8EnJ 8a] 8ff#]
8F#L [8dd
8G#XJ 8dd_
8AL 8dd_ [8ee
8BJ 8dd] 8ee]
8c#L [8cc# [8aa
8dJ 8cc#] 8aa_
!!linebreak:original
=13
8EL [8b 8aa_
8F#J 8b] 8aa]
8GnL [8ee [8gg
8AJ 8ee_ 8gg]
8BL 8ee_ [8ff#
8c#J 8ee] 8ff#]
8dL [8dd [8bb
8eJ 8dd] 8bb_
=14
8F#L [8cc# 8bb_
8EJ 8cc#] 8bb]
8F#L [8ff# [8aa#X
8DJ 8ff#_ 8aa#]
8GL 8ff#] [8bb
8F#J 8b 8bb_
8GL [8ee 8bb]
[16EL 16ee_ 16aan
16EJJ] 16ee_ 16gg
=15
8A#XL 8ee] [8ff#
[16F#L 16dd 16ff#_
16F#JJ] 16cc# 16ff#_
8BL 8dd 8ff#]
8EJ 8b 8gg
8F#L [8b [8dd
8EJ 8b] 8dd]
8F#L [8a#X [8cc#
8FF#J 8a#] 8cc#]
=16
[8BBL [8b
8BBJ] 8b] [8gg
[8AAL [8cc# 8gg]
8AAJ] 8cc#] [8ff#
[8GGTL [8dd 8ff#]
16GGTL_ 16dd_ 16bb
16GGTJJ_ 16dd_ 16aa#X
8GGTL_ 8dd] [8bb
8GGTJ] [8ee 8bb]
=17
[8FF#L 8ee] 8aa#X
8FF#J_ 8dd 8bb
8FF#L_ 8cc# 8ee
8FF#J_ 8b 8dd
2FF#m] 2a#X 2cc#
!!pagebreak:original
=18!|:
8F#L [8aan
8GnJ 8cc# 8aa_
8AL 8ff# 8aa_
8F#J 8ee 8aa_
8BL [8dd#X 8aa]
8AJ 8dd#_ 8ff#
8GL 8dd#_ 8bb
8F#J 8dd#] 8aa
=19
8EL [8ee [8gg
8GGJ 8ee] 8gg]
8AAL [8dd#X [8ff#
8BBJ 8dd#] 8ff#]
8EEL 8ee [8gg
8FF#J 8b 8gg_
8GGL 8ee 8gg_
8EEJ 8ddn 8gg_
=20
8AAL [8cc# 8gg]
8GGJ 8cc#_ 8ee
8FF#L 8cc#_ 8aa
8EEJ 8cc#] 8gg
8DDL [8dd [8ff#
8FF#J 8dd] 8ff#]
8GGL [8cc# [8ee
8AAJ 8cc#] 8ee]
=21
8DDL 8dd [8ff#
8EJ 8a 8ff#_
8DL 8b 8ff#_
8C#J 8cc# 8ff#_
8BBL [8dd 8ff#]
8AAJ 8dd_ 8ff#
8GG#XL 8dd_ 8gg#X
8FF#J 8dd_ 8aa
!!linebreak:original
=22
8EE#XL 8dd] [8bb
8F#J 8cc# 8bb]
8G#XL 8ff# [8aa
8AJ 8een 8aa_
8BL 8dd 8aa_
8c#J 8cc# 8aa]
8dL [8b 8ggn
8BJ 8b_ 8ff#
=23
8c#L 8b_ 8ee#X
8FF#J 8b] 8cc#
8GG#XL [8a 8ff#
8AAJ 8a_ 8een
8BBL 8a] [8dd
8C#J 8a 8dd_
8DL 8g#X 8dd_
8BBJ 8f# 8dd_
=24
8C#L 8e#X 8dd_
8D#XJ 8f# 8dd]
8E#XL [8g#X 8cc#
8C#J 8g#_ 8b
8F#L 8g#_ 8a
8G#XJ 8g#] 8b
8AL 8f# [8cc#
8F#J 8en 8cc#_
!!linebreak:original
=25
8BL [8d 8cc#_
8AJ 8d_ 8cc#]
8G#XL 8d_ [8b
8F#J 8d] 8b_
8E#XL [8c# 8b_
8C#J 8c#_ 8b]
8F#L 8c#_ [8a
8EnJ 8c#] 8a_
=26
8DL [8B 8a_
8C#J 8B_ 8a]
8DL 8B_ 8g#X
8BBJ 8B_ 8f#
8C#L 8B] 8e#X
8BBJ 8e# 8dd
8AAL 8f# 8cc#
8BBJ 8g#X 8b
=27
8C#L 8c# [8a
8BBJ [8f# 8a]
8C#L 8f#] [8g#X
8CC#J 8e#X 8g#]
8FF#L [8f#
8C#J 8f#]
8D#XL [8ccn
8EnJ 8cc_
!!linebreak:original
=28
8F#L 8ccn_ [8dd#X
8AJ 8cc] 8dd#]
8GL 8b 8ee
8F#J 8a 8ff#
8EL 8g 8b
8F#J 8dd#X 8cccn
8GL 8ee 8bb
8AJ 8ff# 8aa
=29
8BL 8b [8gg
8AJ [8ee 8gg]
8BL 8ee] [8ff#
8BBJ 8dd#X 8ff#]
8EL [8ee
8BJ 8ee]
8c#L [8bb-X
8dnJ 8bb-_
=30
8eL [8cc# 8bb-X_
8GJ 8cc#] 8bb-]
8F#L 8dd 8aa
8EJ 8ee 8gg
8DL 8a 8ff#
8EJ 8b-X 8cc#
8F#L 8a 8dd
8GJ 8g 8ee
=31
8AL [8f# 8a
8GJ 8f#] [8dd
8AL [8e 8dd]
8AAJ 8e] 8cc#
8BBL [8d 8f#
8DJ 8d] [8b
8F#L [8c# 8b]
8FF#J 8c#] 8a
!!pagebreak:original
=32
8GGL [8B 8d
8BBJ 8B] [8g
[8DL [8A 8g]
8DJ_ 8A] 8f#
8DL] [8B [8g#X
8DJ 8B] 8g#]
8C#L [8e 8a#X
8BBJ 8e_ 8b
=33
8AA#XL 8e] [8cc#
8FF#J 8gn 8cc#_
8GG#XL 8f# 8cc#_
8AA#XJ 8e 8cc#_
8BBL [8d 8cc#]
8F#J 8d] 8b
8EL [8gn 8cc#
8DJ 8g_ 8dd
=34
8C#L 8g] [8ee
8AAJ 8b 8ee_
8BBL 8a 8ee_
8C#J 8g 8ee_
8DL [8f# 8ee]
8AJ 8f#] 8dd
8GL [8b 8ee
8F#J 8b_ 8ff#
=35
8EL 8b] [8gg
8C#J 8dd 8gg_
8DL 8cc# 8gg_
8EJ 8b 8gg_
8AA#XL 8cc# 8gg_
8F#J 8ee 8gg]
8G#XL 8dd [8ff#
8A#XJ 8cc# 8ff#_
!!linebreak:original
=36
8BL [8dd 8ff#]
8BBJ 8dd] 8aa
8C#L [8b 8gg
8DJ 8b_ 8ff#
8EL 8b] [8gg
8F#J 8dd 8gg]
8EL 8cc# [8gg#X
8DJ 8b 8gg#_
=37
8C#L [8ee 8gg#X]
8c#J 8ee] 8bb
8dL [8cc# 8aa
8eJ 8cc#_ 8gg#X
8f#L 8cc#] [8aa
8gnJ 8ee 8aa]
8f#L 8dd [8aa#X
8eJ 8cc# 8aa#_
=38
8dL [8ff# 8aa#X]
8DJ 8ff#] 8cccn
8EL [8dd 8bb
8F#J 8dd_ 8aa#X
8GL 8dd] [8bb
8F#J 8ee 8bb_
8EL [8ff# 8bb]
8D#XJ 8ff#_ 8aan
=39
8EL 8ff#_ [8gg
8DnJ 8ff#] 8gg_
8C#L [8ee 8gg_
8BBJ 8ee_ 8gg]
8AA#XL 8ee_ [8ff#
8F#J 8ee] 8ff#_
8BL [8dd 8ff#_
8AnJ 8dd_ 8ff#]
!!linebreak:original
=40
8G#XL 8dd_ [8ee
8F#J 8dd] 8ee_
8G#XL [8cc# 8ee_
8A#XJ 8cc#_ 8ee]
8BL 8cc#_ [8dd
8BBJ 8cc#] 8dd_
8C#L 8b 8dd_
8DJ 8an 8dd_
=41
8EL [8g 8dd_
8F#J 8g_ 8dd]
8GL 8g_ 8cc#
8EJ 8g_ 8b
8F#L 8g] 8a#X
8EJ 8a# 8gg
8DL 8b 8ff#
8EJ 8cc# 8ee
=42
8F#L 8f# [8dd
8EJ [8b 8dd]
8F#L 8b] [8cc#
8FF#J 8a#X 8cc#]
[8GGL [8b
8GGJ] [8e 8b_
[8FF#L 8e] 8b_
8FF#J] 8d#X 8b_
=43
[8EEL [8g 8b]
8EEJ] 8g_ [8b
[8DDL 8g_ 8b]
8DDJ] 8g_ 8a#X
8CC#L 8g] [8ee
8BJ [8g 8ee_
8A#XL 8g] 8ee_
8AnJ 8f# 8ee_
!!linebreak:original
=44
8G#XL [8b 8ee]
8GnJ 8b_ [8ee
8F#L 8b_ 8ee]
8BJ 8b_ 8dd#X
8EL 8b] [8gg
8eJ [8b 8gg_
8dnL 8b] 8gg_
8c#J 8a#X 8gg_
=45
8BL [8dd 8gg]
8cnJ 8dd_ [8ff#
8c#XL 8dd_ 8ff#]
8dJ 8dd_ 8ee#X
8E#XL 8dd] 8bb
[16F#L [16ccn 16een
16F#JJ] 16cc] 16dd#X
8GnL [8b 8ee
8EnJ 8b_ 8gg
=46
8F#L 8b_ [8ddn
8EJ 8b] 8dd]
8F#L [8a#X [8cc#
8FF#J 8a#] 8cc#]
[8BBL 8an 8dd#X
8BBJ_ [8g 8ee
8BBL_ 8g] 8a#X
8BBJ_ [8f# 8b
=47
8BBL_ 8f#] [8g
8BBJ_ 8e 8g_
8BBL_ [8c# 8g_
8BBJ_ 8c#] 8g] 8a#X
2BB;] 2d#X 2f# 2b
=
*-
